X:5
T:Cuz's Concoctions for the Throat 
B:Terry "Cuz" Teahan "Sliabh Luachra on Parade" 1980
Z:Patrick Cavanagh
M:6/8
L:1/8
R:Jig
K:D
| FG | A2D FED | ABA AED | DFA BAG | F2E EFG | 
| A2D FED | ABA AED | DFA BAG | F2E D :| 
| FA | d2A BAG | AFA AFA | d2A BAG | F2E EFA | 
| d2A BAG | AFA d2B | AFA BAG | F2E D :|| 

